X: 19554
T: James Gannon's
R: barndance
M: 4/4
K: Gmajor
(3BcB AB e2 dB|d2cA E3E|F=F^FG AFDF|GABG (3EGE D2|
(3BcB AB e2 dB|d2cA E3E|F=F^FG AFDF|G2g2 g4||
edef gfga|b2d2 d3B|cBAB cdef|(3gag fa g3f|
edef gfga|b2d2 d3B|cBAB cdef|(3gag fa g2g2||

